X:24
T:Danse des pes
R:Danse de caractre
C:Provence
I:abc2nwc
%%continueall 1
Z:Transcrit et/ou corrig par Michel BELLON - 2005-03-06
Z:Pour toute observation mailto:galouvielle@free.fr
M:4/4
L:1/8
K:C
zg||e2d/2c/2d/2e/2 c3G|:c2c/2d/2e/2d/2 c3c/2d/2|ee e/2f/2g/2f/2 e3e/2f/2|g3/2g/2 a3/2a/2 g3e/2f/2|
gg a/2g/2f/2e/2[1d3G:|[2d3e/2f/2|:g2a3/2e/2 f3d/2e/2|ff e/2f/2g/2d/2 e3c/2d/2|
e2g3/2f/2 e2g/2f/2e/2d/2|[1ce d2c3e/2f/2:|[2ce g/2f/2e/2d/2 c4
|:[M:6/8]g||e2c d2G|c/2B/2c/2d/2e/2f/2 g2g|e2c d2G|c3-c2:|
g||a2g f2e|d3-d2d|e2g e2d|c6[|M:2/4][L:1/16] (3(GAB||
c2)cG e2ge|c2e2 G4|c2ce d2de|gfed c2|: (3(GAB||
c2)cG e2ge|c2e2 G4|c2ce d2df|e2ge d2  (3(GAB|
c2)cG e2ge|c2e2 G4|c2ce d2de|gfed c4|
d2df e2eg|d2df e4|G2AB cBAG|gfed e2c2|
d2df e2eg|d2df e4|g2ab c'bag|^fgaf g2  (3(GAB||
c2)cG e2ge|c2e2 G4|c2ce d2df|e2ge d2  (3(GAB|
c2)cG e2ge|c2e2 G4|c2ce d2de|gfed c4|
d2df e2eg|d2df e4|G2AB cBAG|gfed e2c2|
d2df e2eg|d2df e4|g2ab c'bag|^fgaf g2:|
z2[M:4/4][L:1/8]e2fd c2Ge|d3/2e/2 fd c4|
e2fd c2Ge|d3/2e/2 fd c4|e2ce g2e2|
c2e2g4|e2fd c2Ge|d3/2e/2 fd c4|e2ce g3a|
ge ce gg/2g/2 gg|d2dd e2ce|f3/2e/2 dc d2G2|
a2aa g2e2|g3/2f/2 ed c4|d2dd e2ce|
f3/2e/2 dc d2G2|a2aa g2c2|e3/2d/2 cB c4
|:[M:6/8]g||e2c d2G|c/2B/2c/2d/2e/2f/2 g2g|e2c d2G|c3-c2:|
g||a2g f2e|d3-d2d|e2g e2d|c6|:[M:2/4][L:1/16]cdef g2gg|
g2g2 g2ag|f2gf e2fe|[1dcBA G2G2:|[2d8
|:gfef g2g2|fede f2f2|[1edcd e2e2|dcde d2 z2:|[2fedc edcB|c8|]
%%begintext
